icons/CircleCheck_filled.svg

<svg width="24" height="24" viewBox="0 0 24 24" fill="none" xmlns="http://www.w3.org/2000/svg">
<path fill-rule="evenodd" clip-rule="evenodd" d="M21.75,12c0,5.3848 -4.3652,9.75 -9.75,9.75c-5.38478,0 -9.75,-4.3652 -9.75,-9.75c0,-5.38478 4.36522,-9.75 9.75,-9.75c5.3848,0 9.75,4.36522 9.75,9.75z" fill="#002B51"/>
<path fill-rule="evenodd" clip-rule="evenodd" d="M16.0303,9.21969c0.2929,0.29289 0.2929,0.76776 0,1.06061l-4.5,4.5c-0.2929,0.2929 -0.7677,0.2929 -1.0606,0l-2.50003,-2.5c-0.29289,-0.2928 -0.29289,-0.7677 0,-1.0606c0.29289,-0.2929 0.76777,-0.2929 1.06066,0l1.96967,1.9697l3.9697,-3.96971c0.2929,-0.2929 0.7677,-0.2929 1.0606,0z" fill="white"/>
</svg>

<svg width="24" height="24" viewBox="0 0 24 24" fill="none" xmlns="http://www.w3.org/2000/svg">
<path fill-rule="evenodd" clip-rule="evenodd" d="M12 2.25C6.61522 2.25 2.25 6.61522 2.25 12C2.25 17.3848 6.61522 21.75 12 21.75C17.3848 21.75 21.75 17.3848 21.75 12C21.75 6.61522 17.3848 2.25 12 2.25Z" fill="#002B51"/>
<path fill-rule="evenodd" clip-rule="evenodd" d="M16.0303 9.21969C16.3232 9.51258 16.3232 9.98745 16.0303 10.2803L11.5303 14.7803C11.2374 15.0732 10.7626 15.0732 10.4697 14.7803L7.96967 12.2803C7.67678 11.9875 7.67678 11.5126 7.96967 11.2197C8.26256 10.9268 8.73744 10.9268 9.03033 11.2197L11 13.1894L14.9697 9.21969C15.2626 8.92679 15.7374 8.92679 16.0303 9.21969Z" fill="white"/>
</svg>
